

; Set the correct units and feedrates
M92 X142.7822
M203 X100
M92 Y203.937
M203 Y50
M92 E100.4028
M203 E162
G1 F7314


; Pre Wrap


; Home the machine
G28 Y
M92 Z115.111111 (make sure the z axis will home correctly)
M203 Z2000 (make sure the z axis won't move too fast)
G28 X Z
G1 Z0.0 
M92 Z203.93700787381889 (now write the correct units)
M203 Z100.0 (set the correct max feedrate)
G92 E0
G92 E0
G1 X38.1 F2000
M0 Moving Head Out
G1 Y54.407 F2000
M0 Checking Holder Locations
G1 F2000
G1 X38.1 
G1 Y54.407 
M0 This Should Be Centered On Holder
G1 X292.1 
M0 This Should Be Centered On Holder
G1 X38.1 


; Wrap
M0 Moving to behind the holder
G1 X0.0 F1500
M0 Tie Down Filament
G1 E325.09 F1500


; Wrap
G92 E0
G1 X0.0 
G1 X25.4 Z-25.4 E36.275 F2000
G1 X330.2 E471.574 F2000
G1 E498.665 
G1 Z0.0 E534.787 
G1 E670.241 
G1 X304.8 Z25.4 E706.516 F2000
G1 X0.0 E1141.815 F2000
G1 E1168.906 
G1 Z0.0 E1205.027 
G1 E1304.347 F2000
G1 X25.4 Z-25.4 E1340.622 F2000
G1 X330.2 E1775.922 F2000
G1 E1803.013 
G1 Z0.0 E1839.134 
G1 E1974.588 
G1 X304.8 Z25.4 E2010.863 F2000
G1 X0.0 E2446.163 F2000
G1 E2473.254 
G1 Z0.0 E2509.375 
G1 E2608.695 F2000
G1 X25.4 Z-25.4 E2644.97 F2000
G1 X330.2 E3080.269 F2000
G1 E3107.36 
G1 Z0.0 E3143.481 
G1 E3278.936 
G1 X304.8 Z25.4 E3315.211 F2000
G1 X0.0 E3750.51 F2000
G1 E3777.601 
G1 Z0.0 E3813.722 
G1 E3913.042 F2000
G1 X25.4 Z-25.4 E3949.317 F2000
G1 X330.2 E4384.617 F2000
G1 E4411.708 
G1 Z0.0 E4447.829 
G1 E4583.283 
G1 X304.8 Z25.4 E4619.558 F2000
G1 X0.0 E5054.858 F2000
G1 E5081.948 
G1 Z0.0 E5118.07 
G1 E5217.39 F2000
G1 X25.4 Z-25.4 E5253.665 F2000
G1 X330.2 E5688.964 F2000
G1 E5716.055 
G1 Z0.0 E5752.176 
G1 E5887.631 
G1 X304.8 Z25.4 E5923.906 F2000
G1 X0.0 E6359.205 F2000
G1 E6386.296 
G1 Z0.0 E6422.417 
G1 E6521.737 F2000
G1 X25.4 Z-25.4 E6558.012 F2000
G1 X330.2 E6993.312 F2000
G1 E7020.402 
G1 Z0.0 E7056.524 
G1 E7191.978 
G1 X304.8 Z25.4 E7228.253 F2000
G1 X0.0 E7663.552 F2000
G1 E7690.643 
G1 Z0.0 E7726.765 
G1 E7826.085 F2000
G1 X25.4 Z-25.4 E7862.36 F2000
G1 X330.2 E8297.659 F2000
G1 E8324.75 
G1 Z0.0 E8360.871 
G1 E8496.325 
G1 X304.8 Z25.4 E8532.6 F2000
G1 X0.0 E8967.9 F2000
G1 E8994.991 
G1 Z0.0 E9031.112 
G1 E9130.432 F2000
G1 X25.4 Z-25.4 E9166.707 F2000
G1 X330.2 E9602.006 F2000
G1 E9629.097 
G1 Z0.0 E9665.218 
G1 E9800.673 
G1 X304.8 Z25.4 E9836.948 F2000
G1 X0.0 E10272.247 F2000
G1 E10299.338 
G1 Z0.0 E10335.459 
G1 E10434.779 F2000
G1 X25.4 Z-25.4 E10471.054 F2000
G1 X330.2 E10906.354 F2000
G1 E10933.445 
G1 Z0.0 E10969.566 
G1 E11105.02 
G1 X304.8 Z25.4 E11141.295 F2000
G1 X0.0 E11576.595 F2000
G1 E11603.686 
G1 Z0.0 E11639.807 
G1 E11739.127 F2000
G1 X25.4 Z-25.4 E11775.402 F2000
G1 X330.2 E12210.701 F2000
G1 E12237.792 
G1 Z0.0 E12273.913 
G1 E12409.368 
G1 X304.8 Z25.4 E12445.643 F2000
G1 X0.0 E12880.942 F2000
G1 E12908.033 
G1 Z0.0 E12944.154 
G1 E13043.474 F2000
G1 X25.4 Z-25.4 E13079.749 F2000
G1 X330.2 E13515.049 F2000
G1 E13542.14 
G1 Z0.0 E13578.261 
G1 E13713.715 
G1 X304.8 Z25.4 E13749.99 F2000
G1 X0.0 E14185.29 F2000
G1 E14212.38 
G1 Z0.0 E14248.502 
G1 E14347.822 F2000
G1 X25.4 Z-25.4 E14384.097 F2000
G1 X330.2 E14819.396 F2000
G1 E14846.487 
G1 Z0.0 E14882.608 
G1 E15018.063 
G1 X304.8 Z25.4 E15054.338 F2000
G1 X0.0 E15489.637 F2000
G1 E15516.728 
G1 Z0.0 E15552.849 
G1 E15652.169 F2000
G1 X25.4 Z-25.4 E15688.444 F2000
G1 X330.2 E16123.744 F2000
G1 E16150.834 
G1 Z0.0 E16186.956 
G1 E16322.41 
G1 X304.8 Z25.4 E16358.685 F2000
G1 X0.0 E16793.984 F2000
G1 E16821.075 
G1 Z0.0 E16857.196 
G1 E16956.517 F2000
G1 X25.4 Z-25.4 E16992.791 F2000
G1 X330.2 E17428.091 F2000
G1 E17455.182 
G1 Z0.0 E17491.303 
G1 E17626.757 
G1 X304.8 Z25.4 E17663.032 F2000
G1 X0.0 E18098.332 F2000
G1 E18125.423 
G1 Z0.0 E18161.544 
G1 E18260.864 F2000
G1 X25.4 Z-25.4 E18297.139 F2000
G1 X330.2 E18732.438 F2000
G1 E18759.529 
G1 Z0.0 E18795.65 
G1 E18931.105 
G1 X304.8 Z25.4 E18967.38 F2000
G1 X0.0 E19402.679 F2000
G1 E19429.77 
G1 Z0.0 E19465.891 
G1 E19565.211 F2000
G1 X25.4 Z-25.4 E19601.486 F2000
G1 X330.2 E20036.786 F2000
G1 E20063.877 
G1 Z0.0 E20099.998 
G1 E20235.452 
G1 X304.8 Z25.4 E20271.727 F2000
G1 X0.0 E20707.027 F2000
G1 E20734.118 
G1 Z0.0 E20770.239 
G1 E20869.559 F2000
G1 X25.4 Z-25.4 E20905.834 F2000
G1 X330.2 E21341.133 F2000
G1 E21368.224 
G1 Z0.0 E21404.345 
G1 E21539.8 
G1 X304.8 Z25.4 E21576.075 F2000
G1 X0.0 E22011.374 F2000
G1 E22038.465 
G1 Z0.0 E22074.586 
G1 E22173.906 F2000
G1 X25.4 Z-25.4 E22210.181 F2000
G1 X330.2 E22645.481 F2000
G1 E22672.572 
G1 Z0.0 E22708.693 
G1 E22844.147 
G1 X304.8 Z25.4 E22880.422 F2000
G1 X0.0 E23315.722 F2000
G1 E23342.812 
G1 Z0.0 E23378.934 
G1 E23478.254 F2000
G1 X25.4 Z-25.4 E23514.529 F2000
G1 X330.2 E23949.828 F2000
G1 E23976.919 
G1 Z0.0 E24013.04 
G1 E24148.495 
G1 X304.8 Z25.4 E24184.769 F2000
G1 X0.0 E24620.069 F2000
G1 E24647.16 
G1 Z0.0 E24683.281 
G1 E24782.601 F2000
G1 X25.4 Z-25.4 E24818.876 F2000
G1 X330.2 E25254.176 F2000
G1 E25281.266 
G1 Z0.0 E25317.388 
G1 E25452.842 
G1 X304.8 Z25.4 E25489.117 F2000
G1 X0.0 E25924.416 F2000
G1 E25951.507 
G1 Z0.0 E25987.628 
G1 E26086.949 F2000
G1 X25.4 Z-25.4 E26123.223 F2000
G1 X330.2 E26558.523 F2000
G1 E26585.614 
G1 Z0.0 E26621.735 
G1 E26757.189 
G1 X304.8 Z25.4 E26793.464 F2000
G1 X0.0 E27228.764 F2000
G1 E27255.855 
G1 Z0.0 E27291.976 
G1 E27391.296 F2000
G1 X25.4 Z-25.4 E27427.571 F2000
G1 X330.2 E27862.87 F2000
G1 E27889.961 
G1 Z0.0 E27926.082 
G1 E28061.537 
G1 X304.8 Z25.4 E28097.812 F2000
G1 X0.0 E28533.111 F2000
G1 E28560.202 
G1 Z0.0 E28596.323 
G1 E28695.643 F2000
G1 X25.4 Z-25.4 E28731.918 F2000
G1 X330.2 E29167.218 F2000
G1 E29194.309 
G1 Z0.0 E29230.43 
G1 E29365.884 
G1 X304.8 Z25.4 E29402.159 F2000
G1 X0.0 E29837.459 F2000
G1 E29864.55 
G1 Z0.0 E29900.671 
G1 E29999.991 F2000
G1 X25.4 Z-25.4 E30036.266 F2000
G1 X330.2 E30471.565 F2000
G1 E30498.656 
G1 Z0.0 E30534.777 
G1 E30670.232 
G1 X304.8 Z25.4 E30706.507 F2000
G1 X0.0 E31141.806 F2000
G1 E31168.897 
G1 Z0.0 E31205.018 
G1 E31304.338 F2000
G1 X25.4 Z-25.4 E31340.613 F2000
G1 X330.2 E31775.913 F2000
G1 E31803.004 
G1 Z0.0 E31839.125 
G1 E31974.579 
G1 X304.8 Z25.4 E32010.854 F2000
G1 X0.0 E32446.154 F2000
G1 E32473.244 
G1 Z0.0 E32509.366 
G1 E32608.686 F2000
G1 X25.4 Z-25.4 E32644.961 F2000
G1 X330.2 E33080.26 F2000
G1 E33107.351 
G1 Z0.0 E33143.472 
G1 E33278.927 
G1 X304.8 Z25.4 E33315.201 F2000
G1 X0.0 E33750.501 F2000
G1 E33777.592 
G1 Z0.0 E33813.713 
G1 E33913.033 F2000
G1 X25.4 Z-25.4 E33949.308 F2000
G1 X330.2 E34384.608 F2000
G1 E34411.698 
G1 Z0.0 E34447.82 
G1 E34583.274 
G1 X304.8 Z25.4 E34619.549 F2000
G1 X0.0 E35054.848 F2000
G1 E35081.939 
G1 Z0.0 E35118.06 
G1 E35217.38 F2000
G1 X25.4 Z-25.4 E35253.655 F2000
G1 X330.2 E35688.955 F2000
G1 E35716.046 
G1 Z0.0 E35752.167 
G1 E35887.621 
G1 X304.8 Z25.4 E35923.896 F2000
G1 X0.0 E36359.196 F2000
G1 E36386.287 
G1 Z0.0 E36422.408 
G1 E36521.728 F2000
G1 X25.4 Z-25.4 E36558.003 F2000
G1 X330.2 E36993.302 F2000
G1 E37020.393 
G1 Z0.0 E37056.514 
G1 E37191.969 
G1 X304.8 Z25.4 E37228.244 F2000
G1 X0.0 E37663.543 F2000
G1 E37690.634 
G1 Z0.0 E37726.755 
G1 E37826.075 F2000
G1 X25.4 Z-25.4 E37862.35 F2000
G1 X330.2 E38297.65 F2000
G1 E38324.741 
G1 Z0.0 E38360.862 
G1 E38496.316 
G1 X304.8 Z25.4 E38532.591 F2000
G1 X0.0 E38967.891 F2000
G1 E38994.982 
G1 Z0.0 E39031.103 
G1 E39130.423 F2000
G1 X25.4 Z-25.4 E39166.698 F2000
G1 X330.2 E39601.997 F2000
G1 E39629.088 
G1 Z0.0 E39665.209 
G1 E39800.664 
G1 X304.8 Z25.4 E39836.939 F2000
G1 X0.0 E40272.238 F2000
G1 E40299.329 
G1 Z0.0 E40335.45 
G1 E40434.77 F2000
G1 X25.4 Z-25.4 E40471.045 F2000
G1 X330.2 E40906.345 F2000
G1 E40933.436 
G1 Z0.0 E40969.557 
G1 E41105.011 
G1 X304.8 Z25.4 E41141.286 F2000
G1 X0.0 E41576.586 F2000
G1 E41603.676 
G1 Z0.0 E41639.798 
G1 E41739.118 F2000
G1 X25.4 Z-25.4 E41775.393 F2000
G1 X330.2 E42210.692 F2000
G1 E42237.783 
G1 Z0.0 E42273.904 
G1 E42409.358 
G1 X304.8 Z25.4 E42445.633 F2000
G1 X0.0 E42880.933 F2000
G1 E42908.024 
G1 Z0.0 E42944.145 
G1 E43043.465 F2000
G1 X25.4 Z-25.4 E43079.74 F2000
G1 X330.2 E43515.04 F2000
G1 E43542.13 
G1 Z0.0 E43578.252 
G1 E43713.706 
G1 X304.8 Z25.4 E43749.981 F2000
G1 X0.0 E44185.28 F2000
G1 E44212.371 
G1 Z0.0 E44248.492 
G1 E44347.812 F2000
G1 X25.4 Z-25.4 E44384.087 F2000
G1 X330.2 E44819.387 F2000
G1 E44846.478 
G1 Z0.0 E44882.599 
G1 E45018.053 
G1 X304.8 Z25.4 E45054.328 F2000
G1 X0.0 E45489.628 F2000
G1 E45516.719 
G1 Z0.0 E45552.84 
G1 E45652.16 F2000
G1 X25.4 Z-25.4 E45688.435 F2000
G1 X330.2 E46123.734 F2000
G1 E46150.825 
G1 Z0.0 E46186.946 
G1 E46322.401 
G1 X304.8 Z25.4 E46358.676 F2000
G1 X0.0 E46793.975 F2000
G1 E46821.066 
G1 Z0.0 E46857.187 
G1 E46956.507 F2000
G1 X25.4 Z-25.4 E46992.782 F2000
G1 X330.2 E47428.082 F2000
G1 E47455.173 
G1 Z0.0 E47491.294 
G1 E47626.748 
G1 X304.8 Z25.4 E47663.023 F2000
G1 X0.0 E48098.323 F2000
G1 E48125.414 
G1 Z0.0 E48161.535 
G1 E48260.855 F2000
G1 X25.4 Z-25.4 E48297.13 F2000
G1 X330.2 E48732.429 F2000
G1 E48759.52 
G1 Z0.0 E48795.641 
G1 E48931.096 
G1 X304.8 Z25.4 E48967.371 F2000
G1 X0.0 E49402.67 F2000
G1 E49429.761 
G1 Z0.0 E49465.882 
G1 E49565.202 F2000
G1 X25.4 Z-25.4 E49601.477 F2000
G1 X330.2 E50036.777 F2000
G1 E50063.868 
G1 Z0.0 E50099.989 
G1 E50235.443 
G1 X304.8 Z25.4 E50271.718 F2000
G1 X0.0 E50707.018 F2000
G1 E50734.108 
G1 Z0.0 E50770.23 
G1 E50869.55 F2000
G1 X25.4 Z-25.4 E50905.825 F2000
G1 X330.2 E51341.124 F2000
G1 E51368.215 
G1 Z0.0 E51404.336 
G1 E51539.79 
G1 X304.8 Z25.4 E51576.065 F2000
G1 X0.0 E52011.365 F2000
G1 E52038.456 
G1 Z0.0 E52074.577 
G1 E52173.897 F2000
G1 X25.4 Z-25.4 E52210.172 F2000
G1 X330.2 E52645.471 F2000
G1 E52672.562 
G1 Z0.0 E52708.684 
G1 E52844.138 
G1 X304.8 Z25.4 E52880.413 F2000
G1 X0.0 E53315.712 F2000
G1 E53342.803 
G1 Z0.0 E53378.924 
G1 E53478.244 F2000
G1 X25.4 Z-25.4 E53514.519 F2000
G1 X330.2 E53949.819 F2000
G1 E53976.91 
G1 Z0.0 E54013.031 
G1 E54148.485 
G1 X304.8 Z25.4 E54184.76 F2000
G1 X0.0 E54620.06 F2000
G1 E54647.151 
G1 Z0.0 E54683.272 
G1 E54782.592 F2000
G1 X25.4 Z-25.4 E54818.867 F2000
G1 X330.2 E55254.166 F2000
G1 E55281.257 
G1 Z0.0 E55317.378 
G1 E55452.833 
G1 X304.8 Z25.4 E55489.108 F2000
G1 X0.0 E55924.407 F2000
G1 E55951.498 
G1 Z0.0 E55987.619 
G1 E56086.939 F2000
G1 X25.4 Z-25.4 E56123.214 F2000
G1 X330.2 E56558.514 F2000
G1 E56585.605 
G1 Z0.0 E56621.726 
G1 E56757.18 
G1 X304.8 Z25.4 E56793.455 F2000
G1 X0.0 E57228.755 F2000
G1 E57255.846 
G1 Z0.0 E57291.967 
G1 E57391.287 F2000
G1 X25.4 Z-25.4 E57427.562 F2000
G1 X330.2 E57862.861 F2000
G1 E57889.952 
G1 Z0.0 E57926.073 
G1 E58061.528 
G1 X304.8 Z25.4 E58097.803 F2000
G1 X0.0 E58533.102 F2000
G1 E58560.193 
G1 Z0.0 E58596.314 
G1 E58695.634 F2000
G1 X25.4 Z-25.4 E58731.909 F2000
G1 X330.2 E59167.209 F2000
G1 E59194.299 
G1 Z0.0 E59230.421 
G1 E59365.875 
G1 X304.8 Z25.4 E59402.15 F2000
G1 X0.0 E59837.449 F2000
G1 E59864.54 
G1 Z0.0 E59900.662 
G1 E59999.982 F2000
G1 X25.4 Z-25.4 E60036.257 F2000
G1 X330.2 E60471.556 F2000
G1 E60498.647 
G1 Z0.0 E60534.768 
G1 E60670.222 
G1 X304.8 Z25.4 E60706.497 F2000
G1 X0.0 E61141.797 F2000
G1 E61168.888 
G1 Z0.0 E61205.009 
G1 E61304.329 F2000
G1 X25.4 Z-25.4 E61340.604 F2000
G1 X330.2 E61775.903 F2000
G1 E61802.994 
G1 Z0.0 E61839.116 
G1 E61974.57 
G1 X304.8 Z25.4 E62010.845 F2000
G1 X0.0 E62446.144 F2000
G1 E62473.235 
G1 Z0.0 E62509.356 
G1 E62608.676 F2000
G1 X25.4 Z-25.4 E62644.951 F2000
G1 X330.2 E63080.251 F2000
G1 E63107.342 
G1 Z0.0 E63143.463 
G1 E63278.917 
G1 X304.8 Z25.4 E63315.192 F2000
G1 X0.0 E63750.492 F2000
G1 E63777.583 
G1 Z0.0 E63813.704 
G1 E63913.024 F2000
G1 X25.4 Z-25.4 E63949.299 F2000
G1 X330.2 E64384.598 F2000
G1 E64411.689 
G1 Z0.0 E64447.81 
G1 E64583.265 
G1 X304.8 Z25.4 E64619.54 F2000
G1 X0.0 E65054.839 F2000
G1 E65081.93 
G1 Z0.0 E65118.051 
G1 E65217.371 F2000
G1 X25.4 Z-25.4 E65253.646 F2000
G1 X330.2 E65688.946 F2000
G1 E65716.037 
G1 Z0.0 E65752.158 
G1 E65887.612 
G1 X304.8 Z25.4 E65923.887 F2000
G1 X0.0 E66359.187 F2000
G1 E66386.278 
G1 Z0.0 E66422.399 
G1 E66521.719 F2000
G1 X25.4 Z-25.4 E66557.994 F2000
G1 X330.2 E66993.293 F2000
G1 E67020.384 
G1 Z0.0 E67056.505 
G1 E67191.96 
G1 X304.8 Z25.4 E67228.235 F2000
G1 X0.0 E67663.534 F2000
G1 E67690.625 
G1 Z0.0 E67726.746 
G1 E67826.066 F2000
G1 X25.4 Z-25.4 E67862.341 F2000
G1 X330.2 E68297.641 F2000
G1 E68324.731 
G1 Z0.0 E68360.853 
G1 E68496.307 
G1 X304.8 Z25.4 E68532.582 F2000
G1 X0.0 E68967.881 F2000
G1 E68994.972 
G1 Z0.0 E69031.094 
G1 E69130.414 F2000
G1 X25.4 Z-25.4 E69166.689 F2000
G1 X330.2 E69601.988 F2000
G1 E69629.079 
G1 Z0.0 E69665.2 
G1 E69800.654 
G1 X304.8 Z25.4 E69836.929 F2000
G1 X0.0 E70272.229 F2000
G1 E70299.32 
G1 Z0.0 E70335.441 
G1 E70434.761 F2000
G1 X25.4 Z-25.4 E70471.036 F2000
G1 X330.2 E70906.335 F2000
G1 E70933.426 
G1 Z0.0 E70969.547 
G1 E71105.002 
G1 X304.8 Z25.4 E71141.277 F2000
G1 X0.0 E71576.576 F2000
G1 E71603.667 
G1 Z0.0 E71639.788 
G1 E71739.108 F2000


; Wrap
G92 E0
G1 X0.0 
G1 X25.4 Z-25.4 E25.4 F2000
G1 X330.2 E330.2 F2000
G1 E357.291 
G1 Z0.0 E393.412 
G1 E528.866 
G1 X304.8 Z25.4 E554.266 F2000
G1 X0.0 E859.066 F2000
G1 E886.157 
G1 Z0.0 E922.278 
G1 E1086.868 F2000
G1 X25.4 Z-25.4 E1112.268 F2000
G1 X330.2 E1417.068 F2000
G1 E1444.159 
G1 Z0.0 E1480.28 
G1 E1615.734 
G1 X304.8 Z25.4 E1641.134 F2000
G1 X0.0 E1945.934 F2000
G1 E1973.025 
G1 Z0.0 E2009.146 
G1 E2173.736 F2000
G1 X25.4 Z-25.4 E2199.136 F2000
G1 X330.2 E2503.936 F2000
G1 E2531.027 
G1 Z0.0 E2567.148 
G1 E2702.602 
G1 X304.8 Z25.4 E2728.002 F2000
G1 X0.0 E3032.802 F2000
G1 E3059.893 
G1 Z0.0 E3096.014 
G1 E3260.603 F2000
G1 X25.4 Z-25.4 E3286.003 F2000
G1 X330.2 E3590.803 F2000
G1 E3617.894 
G1 Z0.0 E3654.015 
G1 E3789.47 
G1 X304.8 Z25.4 E3814.87 F2000
G1 X0.0 E4119.67 F2000
G1 E4146.761 
G1 Z0.0 E4182.882 
G1 E4347.471 F2000
G1 X25.4 Z-25.4 E4372.871 F2000
G1 X330.2 E4677.671 F2000
G1 E4704.762 
G1 Z0.0 E4740.883 
G1 E4876.338 
G1 X304.8 Z25.4 E4901.738 F2000
G1 X0.0 E5206.538 F2000
G1 E5233.629 
G1 Z0.0 E5269.75 
G1 E5434.339 F2000
G1 X25.4 Z-25.4 E5459.739 F2000
G1 X330.2 E5764.539 F2000
G1 E5791.63 
G1 Z0.0 E5827.751 
G1 E5963.205 
G1 X304.8 Z25.4 E5988.605 F2000
G1 X0.0 E6293.405 F2000
G1 E6320.496 
G1 Z0.0 E6356.618 
G1 E6521.207 F2000
G1 X25.4 Z-25.4 E6546.607 F2000
G1 X330.2 E6851.407 F2000
G1 E6878.498 
G1 Z0.0 E6914.619 
G1 E7050.073 
G1 X304.8 Z25.4 E7075.473 F2000
G1 X0.0 E7380.273 F2000
G1 E7407.364 
G1 Z0.0 E7443.485 
G1 E7608.075 F2000
G1 X25.4 Z-25.4 E7633.475 F2000
G1 X330.2 E7938.275 F2000
G1 E7965.366 
G1 Z0.0 E8001.487 
G1 E8136.941 
G1 X304.8 Z25.4 E8162.341 F2000
G1 X0.0 E8467.141 F2000
G1 E8494.232 
G1 Z0.0 E8530.353 
G1 E8694.943 F2000
G1 X25.4 Z-25.4 E8720.343 F2000
G1 X330.2 E9025.143 F2000
G1 E9052.233 
G1 Z0.0 E9088.355 
G1 E9223.809 
G1 X304.8 Z25.4 E9249.209 F2000
G1 X0.0 E9554.009 F2000
G1 E9581.1 
G1 Z0.0 E9617.221 
G1 E9781.81 F2000
G1 X25.4 Z-25.4 E9807.21 F2000
G1 X330.2 E10112.01 F2000
G1 E10139.101 
G1 Z0.0 E10175.222 
G1 E10310.677 
G1 X304.8 Z25.4 E10336.077 F2000
G1 X0.0 E10640.877 F2000
G1 E10667.968 
G1 Z0.0 E10704.089 
G1 E10868.678 F2000
G1 X25.4 Z-25.4 E10894.078 F2000
G1 X330.2 E11198.878 F2000
G1 E11225.969 
G1 Z0.0 E11262.09 
G1 E11397.545 
G1 X304.8 Z25.4 E11422.945 F2000
G1 X0.0 E11727.745 F2000
G1 E11754.835 
G1 Z0.0 E11790.957 
G1 E11955.546 F2000
G1 X25.4 Z-25.4 E11980.946 F2000
G1 X330.2 E12285.746 F2000
G1 E12312.837 
G1 Z0.0 E12348.958 
G1 E12484.412 
G1 X304.8 Z25.4 E12509.812 F2000
G1 X0.0 E12814.612 F2000
G1 E12841.703 
G1 Z0.0 E12877.824 
G1 E13042.414 F2000
G1 X25.4 Z-25.4 E13067.814 F2000
G1 X330.2 E13372.614 F2000
G1 E13399.705 
G1 Z0.0 E13435.826 
G1 E13571.28 
G1 X304.8 Z25.4 E13596.68 F2000
G1 X0.0 E13901.48 F2000
G1 E13928.571 
G1 Z0.0 E13964.692 
G1 E14129.282 F2000
G1 X25.4 Z-25.4 E14154.682 F2000
G1 X330.2 E14459.482 F2000
G1 E14486.572 
G1 Z0.0 E14522.694 
G1 E14658.148 
G1 X304.8 Z25.4 E14683.548 F2000
G1 X0.0 E14988.348 F2000
G1 E15015.439 
G1 Z0.0 E15051.56 
G1 E15216.149 F2000
G1 X25.4 Z-25.4 E15241.549 F2000
G1 X330.2 E15546.349 F2000
G1 E15573.44 
G1 Z0.0 E15609.561 
G1 E15745.016 
G1 X304.8 Z25.4 E15770.416 F2000
G1 X0.0 E16075.216 F2000
G1 E16102.307 
G1 Z0.0 E16138.428 
G1 E16303.017 F2000
G1 X25.4 Z-25.4 E16328.417 F2000
G1 X330.2 E16633.217 F2000
G1 E16660.308 
G1 Z0.0 E16696.429 
G1 E16831.884 
G1 X304.8 Z25.4 E16857.284 F2000
G1 X0.0 E17162.084 F2000
G1 E17189.174 
G1 Z0.0 E17225.296 
G1 E17389.885 F2000
G1 X25.4 Z-25.4 E17415.285 F2000
G1 X330.2 E17720.085 F2000
G1 E17747.176 
G1 Z0.0 E17783.297 
G1 E17918.751 
G1 X304.8 Z25.4 E17944.151 F2000
G1 X0.0 E18248.951 F2000
G1 E18276.042 
G1 Z0.0 E18312.163 
G1 E18476.753 F2000
G1 X25.4 Z-25.4 E18502.153 F2000
G1 X330.2 E18806.953 F2000
G1 E18834.044 
G1 Z0.0 E18870.165 
G1 E19005.619 
G1 X304.8 Z25.4 E19031.019 F2000
G1 X0.0 E19335.819 F2000
G1 E19362.91 
G1 Z0.0 E19399.031 
G1 E19563.621 F2000
G1 X25.4 Z-25.4 E19589.021 F2000
G1 X330.2 E19893.821 F2000
G1 E19920.912 
G1 Z0.0 E19957.033 
G1 E20092.487 
G1 X304.8 Z25.4 E20117.887 F2000
G1 X0.0 E20422.687 F2000
G1 E20449.778 
G1 Z0.0 E20485.899 
G1 E20650.488 F2000
G1 X25.4 Z-25.4 E20675.888 F2000
G1 X330.2 E20980.688 F2000
G1 E21007.779 
G1 Z0.0 E21043.901 
G1 E21179.355 
G1 X304.8 Z25.4 E21204.755 F2000
G1 X0.0 E21509.555 F2000
G1 E21536.646 
G1 Z0.0 E21572.767 
G1 E21737.356 F2000
G1 X25.4 Z-25.4 E21762.756 F2000
G1 X330.2 E22067.556 F2000
G1 E22094.647 
G1 Z0.0 E22130.768 
G1 E22266.223 
G1 X304.8 Z25.4 E22291.623 F2000
G1 X0.0 E22596.423 F2000
G1 E22623.514 
G1 Z0.0 E22659.635 
G1 E22824.224 F2000
G1 X25.4 Z-25.4 E22849.624 F2000
G1 X330.2 E23154.424 F2000
G1 E23181.515 
G1 Z0.0 E23217.636 
G1 E23353.09 
G1 X304.8 Z25.4 E23378.49 F2000
G1 X0.0 E23683.29 F2000
G1 E23710.381 
G1 Z0.0 E23746.503 
G1 E23911.092 F2000
G1 X25.4 Z-25.4 E23936.492 F2000
G1 X330.2 E24241.292 F2000
G1 E24268.383 
G1 Z0.0 E24304.504 
G1 E24439.958 
G1 X304.8 Z25.4 E24465.358 F2000
G1 X0.0 E24770.158 F2000
G1 E24797.249 
G1 Z0.0 E24833.37 
G1 E24997.96 F2000
G1 X25.4 Z-25.4 E25023.36 F2000
G1 X330.2 E25328.16 F2000
G1 E25355.251 
G1 Z0.0 E25391.372 
G1 E25526.826 
G1 X304.8 Z25.4 E25552.226 F2000
G1 X0.0 E25857.026 F2000
G1 E25884.117 
G1 Z0.0 E25920.238 
G1 E26084.828 F2000
G1 X25.4 Z-25.4 E26110.228 F2000
G1 X330.2 E26415.028 F2000
G1 E26442.118 
G1 Z0.0 E26478.24 
G1 E26613.694 
G1 X304.8 Z25.4 E26639.094 F2000
G1 X0.0 E26943.894 F2000
G1 E26970.985 
G1 Z0.0 E27007.106 
G1 E27171.695 F2000
G1 X25.4 Z-25.4 E27197.095 F2000
G1 X330.2 E27501.895 F2000
G1 E27528.986 
G1 Z0.0 E27565.107 
G1 E27700.562 
G1 X304.8 Z25.4 E27725.962 F2000
G1 X0.0 E28030.762 F2000
G1 E28057.853 
G1 Z0.0 E28093.974 
G1 E28258.563 F2000
G1 X25.4 Z-25.4 E28283.963 F2000
G1 X330.2 E28588.763 F2000
G1 E28615.854 
G1 Z0.0 E28651.975 
G1 E28787.43 
G1 X304.8 Z25.4 E28812.83 F2000
G1 X0.0 E29117.63 F2000
G1 E29144.72 
G1 Z0.0 E29180.842 
G1 E29345.431 F2000
G1 X25.4 Z-25.4 E29370.831 F2000
G1 X330.2 E29675.631 F2000
G1 E29702.722 
G1 Z0.0 E29738.843 
G1 E29874.297 
G1 X304.8 Z25.4 E29899.697 F2000
G1 X0.0 E30204.497 F2000
G1 E30231.588 
G1 Z0.0 E30267.709 
G1 E30432.299 F2000
G1 X25.4 Z-25.4 E30457.699 F2000
G1 X330.2 E30762.499 F2000
G1 E30789.59 
G1 Z0.0 E30825.711 
G1 E30961.165 
G1 X304.8 Z25.4 E30986.565 F2000
G1 X0.0 E31291.365 F2000
G1 E31318.456 
G1 Z0.0 E31354.577 
G1 E31519.167 F2000
G1 X25.4 Z-25.4 E31544.567 F2000
G1 X330.2 E31849.367 F2000
G1 E31876.457 
G1 Z0.0 E31912.579 
G1 E32048.033 
G1 X304.8 Z25.4 E32073.433 F2000
G1 X0.0 E32378.233 F2000
G1 E32405.324 
G1 Z0.0 E32441.445 
G1 E32606.034 F2000
G1 X25.4 Z-25.4 E32631.434 F2000
G1 X330.2 E32936.234 F2000
G1 E32963.325 
G1 Z0.0 E32999.446 
G1 E33134.901 
G1 X304.8 Z25.4 E33160.301 F2000
G1 X0.0 E33465.101 F2000
G1 E33492.192 
G1 Z0.0 E33528.313 
G1 E33692.902 F2000
G1 X25.4 Z-25.4 E33718.302 F2000
G1 X330.2 E34023.102 F2000
G1 E34050.193 
G1 Z0.0 E34086.314 
G1 E34221.769 
G1 X304.8 Z25.4 E34247.169 F2000
G1 X0.0 E34551.969 F2000
G1 E34579.06 
G1 Z0.0 E34615.181 
G1 E34779.77 F2000
G1 X25.4 Z-25.4 E34805.17 F2000
G1 X330.2 E35109.97 F2000
G1 E35137.061 
G1 Z0.0 E35173.182 
G1 E35308.636 
G1 X304.8 Z25.4 E35334.036 F2000
G1 X0.0 E35638.836 F2000
G1 E35665.927 
G1 Z0.0 E35702.048 
G1 E35866.638 F2000
G1 X25.4 Z-25.4 E35892.038 F2000
G1 X330.2 E36196.838 F2000
G1 E36223.929 
G1 Z0.0 E36260.05 
G1 E36395.504 
G1 X304.8 Z25.4 E36420.904 F2000
G1 X0.0 E36725.704 F2000
G1 E36752.795 
G1 Z0.0 E36788.916 
G1 E36953.506 F2000
G1 X25.4 Z-25.4 E36978.906 F2000
G1 X330.2 E37283.706 F2000
G1 E37310.797 
G1 Z0.0 E37346.918 
G1 E37482.372 
G1 X304.8 Z25.4 E37507.772 F2000
G1 X0.0 E37812.572 F2000
G1 E37839.663 
G1 Z0.0 E37875.784 
G1 E38040.373 F2000
G1 X25.4 Z-25.4 E38065.773 F2000
G1 X330.2 E38370.573 F2000
G1 E38397.664 
G1 Z0.0 E38433.786 
G1 E38569.24 
G1 X304.8 Z25.4 E38594.64 F2000
G1 X0.0 E38899.44 F2000
G1 E38926.531 
G1 Z0.0 E38962.652 
G1 E39127.241 F2000
G1 X25.4 Z-25.4 E39152.641 F2000
G1 X330.2 E39457.441 F2000
G1 E39484.532 
G1 Z0.0 E39520.653 
G1 E39656.108 
G1 X304.8 Z25.4 E39681.508 F2000
G1 X0.0 E39986.308 F2000
G1 E40013.399 
G1 Z0.0 E40049.52 
G1 E40214.109 F2000
G1 X25.4 Z-25.4 E40239.509 F2000
G1 X330.2 E40544.309 F2000
G1 E40571.4 
G1 Z0.0 E40607.521 
G1 E40742.976 
G1 X304.8 Z25.4 E40768.376 F2000
G1 X0.0 E41073.176 F2000
G1 E41100.266 
G1 Z0.0 E41136.388 
G1 E41300.977 F2000
G1 X25.4 Z-25.4 E41326.377 F2000
G1 X330.2 E41631.177 F2000
G1 E41658.268 
G1 Z0.0 E41694.389 
G1 E41829.843 
G1 X304.8 Z25.4 E41855.243 F2000
G1 X0.0 E42160.043 F2000
G1 E42187.134 
G1 Z0.0 E42223.255 
G1 E42387.845 F2000
G1 X25.4 Z-25.4 E42413.245 F2000
G1 X330.2 E42718.045 F2000
G1 E42745.136 
G1 Z0.0 E42781.257 
G1 E42916.711 
G1 X304.8 Z25.4 E42942.111 F2000
G1 X0.0 E43246.911 F2000
G1 E43274.002 
G1 Z0.0 E43310.123 
G1 E43474.713 F2000
G1 X25.4 Z-25.4 E43500.113 F2000
G1 X330.2 E43804.913 F2000
G1 E43832.003 
G1 Z0.0 E43868.125 
G1 E44003.579 
G1 X304.8 Z25.4 E44028.979 F2000
G1 X0.0 E44333.779 F2000
G1 E44360.87 
G1 Z0.0 E44396.991 
G1 E44561.58 F2000
G1 X25.4 Z-25.4 E44586.98 F2000
G1 X330.2 E44891.78 F2000
G1 E44918.871 
G1 Z0.0 E44954.992 
G1 E45090.447 
G1 X304.8 Z25.4 E45115.847 F2000
G1 X0.0 E45420.647 F2000
G1 E45447.738 
G1 Z0.0 E45483.859 
G1 E45648.448 F2000
G1 X25.4 Z-25.4 E45673.848 F2000
G1 X330.2 E45978.648 F2000
G1 E46005.739 
G1 Z0.0 E46041.86 
G1 E46177.315 
G1 X304.8 Z25.4 E46202.715 F2000
G1 X0.0 E46507.515 F2000
G1 E46534.605 
G1 Z0.0 E46570.727 
G1 E46735.316 F2000
G1 X25.4 Z-25.4 E46760.716 F2000
G1 X330.2 E47065.516 F2000
G1 E47092.607 
G1 Z0.0 E47128.728 
G1 E47264.182 
G1 X304.8 Z25.4 E47289.582 F2000
G1 X0.0 E47594.382 F2000
G1 E47621.473 
G1 Z0.0 E47657.594 
G1 E47822.184 F2000
G1 X25.4 Z-25.4 E47847.584 F2000
G1 X330.2 E48152.384 F2000
G1 E48179.475 
G1 Z0.0 E48215.596 
G1 E48351.05 
G1 X304.8 Z25.4 E48376.45 F2000
G1 X0.0 E48681.25 F2000
G1 E48708.341 
G1 Z0.0 E48744.462 
G1 E48909.052 F2000
G1 X25.4 Z-25.4 E48934.452 F2000
G1 X330.2 E49239.252 F2000
G1 E49266.343 
G1 Z0.0 E49302.464 
G1 E49437.918 
G1 X304.8 Z25.4 E49463.318 F2000
G1 X0.0 E49768.118 F2000
G1 E49795.209 
G1 Z0.0 E49831.33 
G1 E49995.919 F2000
G1 X25.4 Z-25.4 E50021.319 F2000
G1 X330.2 E50326.119 F2000
G1 E50353.21 
G1 Z0.0 E50389.331 
G1 E50524.786 
G1 X304.8 Z25.4 E50550.186 F2000
G1 X0.0 E50854.986 F2000
G1 E50882.077 
G1 Z0.0 E50918.198 
G1 E51082.787 F2000
G1 X25.4 Z-25.4 E51108.187 F2000
G1 X330.2 E51412.987 F2000
G1 E51440.078 
G1 Z0.0 E51476.199 
G1 E51611.654 
G1 X304.8 Z25.4 E51637.054 F2000
G1 X0.0 E51941.854 F2000
G1 E51968.945 
G1 Z0.0 E52005.066 
G1 E52169.655 F2000
G1 X25.4 Z-25.4 E52195.055 F2000
G1 X330.2 E52499.855 F2000
G1 E52526.946 
G1 Z0.0 E52563.067 
G1 E52698.521 
G1 X304.8 Z25.4 E52723.921 F2000
G1 X0.0 E53028.721 F2000
G1 E53055.812 
G1 Z0.0 E53091.934 
G1 E53256.523 F2000
G1 X25.4 Z-25.4 E53281.923 F2000
G1 X330.2 E53586.723 F2000
G1 E53613.814 
G1 Z0.0 E53649.935 
G1 E53785.389 
G1 X304.8 Z25.4 E53810.789 F2000
G1 X0.0 E54115.589 F2000
G1 E54142.68 
G1 Z0.0 E54178.801 
G1 E54343.391 F2000
G1 X25.4 Z-25.4 E54368.791 F2000
G1 X330.2 E54673.591 F2000
G1 E54700.682 
G1 Z0.0 E54736.803 
G1 E54872.257 
G1 X304.8 Z25.4 E54897.657 F2000
G1 X0.0 E55202.457 F2000
G1 E55229.548 
G1 Z0.0 E55265.669 
G1 E55430.259 F2000
G1 X25.4 Z-25.4 E55455.659 F2000
G1 X330.2 E55760.459 F2000
G1 E55787.549 
G1 Z0.0 E55823.671 
G1 E55959.125 
G1 X304.8 Z25.4 E55984.525 F2000
G1 X0.0 E56289.325 F2000
G1 E56316.416 
G1 Z0.0 E56352.537 
G1 E56517.126 F2000
G1 X25.4 Z-25.4 E56542.526 F2000
G1 X330.2 E56847.326 F2000
G1 E56874.417 
G1 Z0.0 E56910.538 
G1 E57045.993 
G1 X304.8 Z25.4 E57071.393 F2000
G1 X0.0 E57376.193 F2000
G1 E57403.284 
G1 Z0.0 E57439.405 
G1 E57603.994 F2000
G1 X25.4 Z-25.4 E57629.394 F2000
G1 X330.2 E57934.194 F2000
G1 E57961.285 
G1 Z0.0 E57997.406 
G1 E58132.861 
G1 X304.8 Z25.4 E58158.261 F2000
G1 X0.0 E58463.061 F2000
G1 E58490.151 
G1 Z0.0 E58526.273 
G1 E58690.862 F2000
G1 X25.4 Z-25.4 E58716.262 F2000
G1 X330.2 E59021.062 F2000
G1 E59048.153 
G1 Z0.0 E59084.274 
G1 E59219.728 
G1 X304.8 Z25.4 E59245.128 F2000
G1 X0.0 E59549.928 F2000
G1 E59577.019 
G1 Z0.0 E59613.14 
G1 E59777.73 F2000
G1 X25.4 Z-25.4 E59803.13 F2000
G1 X330.2 E60107.93 F2000
G1 E60135.021 
G1 Z0.0 E60171.142 
G1 E60306.596 
G1 X304.8 Z25.4 E60331.996 F2000
G1 X0.0 E60636.796 F2000
G1 E60663.887 
G1 Z0.0 E60700.008 
G1 E60864.598 F2000
G1 X25.4 Z-25.4 E60889.998 F2000
G1 X330.2 E61194.798 F2000
G1 E61221.888 
G1 Z0.0 E61258.01 
G1 E61393.464 
G1 X304.8 Z25.4 E61418.864 F2000
G1 X0.0 E61723.664 F2000
G1 E61750.755 
G1 Z0.0 E61786.876 
G1 E61951.465 F2000
G1 X25.4 Z-25.4 E61976.865 F2000
G1 X330.2 E62281.665 F2000
G1 E62308.756 
G1 Z0.0 E62344.877 
G1 E62480.332 
G1 X304.8 Z25.4 E62505.732 F2000
G1 X0.0 E62810.532 F2000
G1 E62837.623 
G1 Z0.0 E62873.744 
G1 E63038.333 F2000
G1 X25.4 Z-25.4 E63063.733 F2000
G1 X330.2 E63368.533 F2000
G1 E63395.624 
G1 Z0.0 E63431.745 
G1 E63567.2 
G1 X304.8 Z25.4 E63592.6 F2000
G1 X0.0 E63897.4 F2000
G1 E63924.49 
G1 Z0.0 E63960.612 
G1 E64125.201 F2000
G1 X25.4 Z-25.4 E64150.601 F2000
G1 X330.2 E64455.401 F2000
G1 E64482.492 
G1 Z0.0 E64518.613 
G1 E64654.067 
G1 X304.8 Z25.4 E64679.467 F2000
G1 X0.0 E64984.267 F2000
G1 E65011.358 
G1 Z0.0 E65047.479 
G1 E65212.069 F2000
G1 X25.4 Z-25.4 E65237.469 F2000
G1 X330.2 E65542.269 F2000
G1 E65569.36 
G1 Z0.0 E65605.481 
G1 E65740.935 
G1 X304.8 Z25.4 E65766.335 F2000
G1 X0.0 E66071.135 F2000
G1 E66098.226 
G1 Z0.0 E66134.347 
G1 E66298.937 F2000
G1 X25.4 Z-25.4 E66324.337 F2000
G1 X330.2 E66629.137 F2000
G1 E66656.228 
G1 Z0.0 E66692.349 
G1 E66827.803 
G1 X304.8 Z25.4 E66853.203 F2000
G1 X0.0 E67158.003 F2000
G1 E67185.094 
G1 Z0.0 E67221.215 
G1 E67385.804 F2000
G1 X25.4 Z-25.4 E67411.204 F2000
G1 X330.2 E67716.004 F2000
G1 E67743.095 
G1 Z0.0 E67779.217 
G1 E67914.671 
G1 X304.8 Z25.4 E67940.071 F2000
G1 X0.0 E68244.871 F2000
G1 E68271.962 
G1 Z0.0 E68308.083 
G1 E68472.672 F2000
G1 X25.4 Z-25.4 E68498.072 F2000
G1 X330.2 E68802.872 F2000
G1 E68829.963 
G1 Z0.0 E68866.084 
G1 E69001.539 
G1 X304.8 Z25.4 E69026.939 F2000
G1 X0.0 E69331.739 F2000
G1 E69358.83 
G1 Z0.0 E69394.951 
G1 E69559.54 F2000
G1 X25.4 Z-25.4 E69584.94 F2000
G1 X330.2 E69889.74 F2000
G1 E69916.831 
G1 Z0.0 E69952.952 
G1 E70088.407 
G1 X304.8 Z25.4 E70113.807 F2000
G1 X0.0 E70418.607 F2000
G1 E70445.697 
G1 Z0.0 E70481.819 
G1 E70646.408 F2000
G1 X25.4 Z-25.4 E70671.808 F2000
G1 X330.2 E70976.608 F2000
G1 E71003.699 
G1 Z0.0 E71039.82 
G1 E71175.274 
G1 X304.8 Z25.4 E71200.674 F2000
G1 X0.0 E71505.474 F2000
G1 E71532.565 
G1 Z0.0 E71568.686 
G1 E71733.276 F2000
G1 X25.4 Z-25.4 E71758.676 F2000
G1 X330.2 E72063.476 F2000
G1 E72090.567 
G1 Z0.0 E72126.688 
G1 E72262.142 
G1 X304.8 Z25.4 E72287.542 F2000
G1 X0.0 E72592.342 F2000
G1 E72619.433 
G1 Z0.0 E72655.554 
G1 E72820.144 F2000
G1 X25.4 Z-25.4 E72845.544 F2000
G1 X330.2 E73150.344 F2000
G1 E73177.434 
G1 Z0.0 E73213.556 
G1 E73349.01 
G1 X304.8 Z25.4 E73374.41 F2000
G1 X0.0 E73679.21 F2000
G1 E73706.301 
G1 Z0.0 E73742.422 
G1 E73907.011 F2000


; Shrink Tape
G92 E0
M0 Please Remove Filament
G1 X38.6 
M0 Please Attatch Shrink Tape
G1 E216.727 F2000
G1 X292.1 E122065.454 F2000
G92 E0


; Heat Gun
M0 Move to starting position
G1 X38.1 
M0 Attatch Heat Gun
M117 Pass 1 of 20
G1 X292.1 E2167.27 F2000
G1 X38.1 E4334.54 F2000
M117 Pass 2 of 20
G1 X292.1 E6501.81 F2000
G1 X38.1 E8669.079 F2000
M117 Pass 3 of 20
G1 X292.1 E10836.349 F2000
G1 X38.1 E13003.619 F2000
M117 Pass 4 of 20
G1 X292.1 E15170.889 F2000
G1 X38.1 E17338.159 F2000
M117 Pass 5 of 20
G1 X292.1 E19505.429 F2000
G1 X38.1 E21672.698 F2000
M117 Pass 6 of 20
G1 X292.1 E23839.968 F2000
G1 X38.1 E26007.238 F2000
M117 Pass 7 of 20
G1 X292.1 E28174.508 F2000
G1 X38.1 E30341.778 F2000
M117 Pass 8 of 20
G1 X292.1 E32509.048 F2000
G1 X38.1 E34676.318 F2000
M117 Pass 9 of 20
G1 X292.1 E36843.587 F2000
G1 X38.1 E39010.857 F2000
M117 Pass 10 of 20
G1 X292.1 E41178.127 F2000
G1 X38.1 E43345.397 F2000
M117 Pass 11 of 20
G1 X292.1 E45512.667 F2000
G1 X38.1 E47679.937 F2000
M117 Pass 12 of 20
G1 X292.1 E49847.206 F2000
G1 X38.1 E52014.476 F2000
M117 Pass 13 of 20
G1 X292.1 E54181.746 F2000
G1 X38.1 E56349.016 F2000
M117 Pass 14 of 20
G1 X292.1 E58516.286 F2000
G1 X38.1 E60683.556 F2000
M117 Pass 15 of 20
G1 X292.1 E62850.825 F2000
G1 X38.1 E65018.095 F2000
M117 Pass 16 of 20
G1 X292.1 E67185.365 F2000
G1 X38.1 E69352.635 F2000
M117 Pass 17 of 20
G1 X292.1 E71519.905 F2000
G1 X38.1 E73687.175 F2000
M117 Pass 18 of 20
G1 X292.1 E75854.445 F2000
G1 X38.1 E78021.714 F2000
M117 Pass 19 of 20
G1 X292.1 E80188.984 F2000
G1 X38.1 E82356.254 F2000
M117 Pass 20 of 20
G1 X292.1 E84523.524 F2000
G1 X38.1 E86690.794 F2000
